X:478
T:Aaron's Key
R:jig
C:Maurice Lennon
Z:hn-jig-478
M:6/8
L:1/8
K:Bm
FBB Bcd | cAA ABc | dBB Bcd | edc BAG |
FBB Bcd | cAA ABc | dcd ~e3 | fdB B2A |
FBB Bcd | cAA ABc | dBB Bcd | efd efg |
~f3 fed | cAA ABc | dcd ~e3 | fdB B2c ||
|: d2A def | ecA a2g | ~f3 fed | cde ABc |
BFB cFc | dAd ~e3 | fed cBA |1 ~B3 B2c :|2 ~B3 B2A ||

